X:1
T:Daniel Kelly
T:Daniel Kelly
T:Turlough Carolan
C:Turlough Carolan
L:1/8
M:2/2
K:C
V:1 treble 
V:1
 GA c2 c3 | c4{cd} e4 | d2 de d2 c2 | d4 d2 eg | a2 e2 c'2 g2 | a2 ge g2 ed | c2 Tc>A c2 d e2 | %7
 E2 G2 AGED | E2 G2 AGED | C2 C>D C2 C2 | EG A2 cA G2 | E2 A2 cAGE | D2 D>E D2 D2 | %13
 e2{e} c2 cd e2 |{d} c2 BA A2 a2 | g4{b} c'2 b2 | a2 ab c'4 |{a} g2 e2 gedc | a2{a} g2 e2 d2 | %19
 cA c2{d} c3 || G | E2 D2 C2 A,2 | c2 C2 G2 E2 | c2 E2 G2 E2 |{B} c2 d2 e2 e2 | c2 cd{d} c2 AG | %26
 A4 c2 de | g2 g2{a} g2 eg | a4 g2 c'd' | e'2 d'c' d'2 c'b | c'2 ba bc' d'2 | c2 a2 Ta2 g2 | %32
 a4 Tb2 ab | c'2 a2 Tg2 e2 |{e} d2 c2 de g2 | A2{B} c2{d} c4 || %36

